src/assets/icons/approve.svg

<svg width="24" height="24" viewBox="0 0 24 24" fill="none" xmlns="http://www.w3.org/2000/svg">
<path d="M2 4C2 2.89543 2.89543 2 4 2H20C21.1046 2 22 2.89543 22 4V20C22 21.1046 21.1046 22 20 22H4C2.89543 22 2 21.1046 2 20V4Z" fill="#1AAE72"/>
<path d="M18.9046 8.13168L10.1744 16.9962C10.0157 17.1573 9.85693 17.2379 9.61884 17.2379C9.38074 17.2379 9.22201 17.1573 9.06328 16.9962L5.09503 12.9668C4.77757 12.6445 4.77757 12.161 5.09503 11.8386C5.41249 11.5163 5.88868 11.5163 6.20614 11.8386L9.61884 15.3038L17.7934 7.00348C18.1109 6.68113 18.5871 6.68113 18.9046 7.00348C19.222 7.32582 19.222 7.80934 18.9046 8.13168Z" fill="white"/>
</svg>

<svg xmlns="http://www.w3.org/2000/svg" width="24" height="24" fill="none" viewBox="0 0 24 24">
  <path fill="#1AAE72" d="M2 4a2 2 0 0 1 2-2h16a2 2 0 0 1 2 2v16a2 2 0 0 1-2 2H4a2 2 0 0 1-2-2V4Z"/>
  <path fill="#fff" d="m18.905 8.132-8.73 8.864a.716.716 0 0 1-.556.242.716.716 0 0 1-.556-.242l-3.968-4.03a.787.787 0 0 1 0-1.127.76.76 0 0 1 1.111 0l3.413 3.465 8.174-8.3a.76.76 0 0 1 1.112 0 .787.787 0 0 1 0 1.128Z"/>
</svg>
